static/logos/teamwork-glyph-color.svg

<svg width="50" height="50" viewBox="0 0 50 50" fill="none" xmlns="http://www.w3.org/2000/svg">
<g clip-path="url(#clip0_1_774)">
<path d="M43.2432 0H6.75676C3.0251 0 0 3.0251 0 6.75676V43.2432C0 46.9749 3.0251 50 6.75676 50H43.2432C46.9749 50 50 46.9749 50 43.2432V6.75676C50 3.0251 46.9749 0 43.2432 0Z" fill="#1B1A32"/>
<path fill-rule="evenodd" clip-rule="evenodd" d="M25.7595 21.5446C27.2 21.5446 28.0257 20.7608 28.0257 19.3919C28.0257 18.1027 27.1379 17.2378 25.8163 17.2378H22.55V14.8189C22.55 13.0743 21.2973 12.1622 20.0595 12.1622C18.823 12.1608 17.5703 13.0743 17.5703 14.8189V31.5027C17.5703 35.5122 19.169 37.3 22.7514 37.3C24.6933 37.3 25.8041 36.8014 26.6284 36.3162C27.2595 35.9649 27.4838 35.2216 27.4838 34.6433C27.4838 33.5703 26.7676 32.3743 25.7365 32.3743C25.5194 32.3765 25.3059 32.4303 25.1136 32.5311C24.8433 32.6554 24.4717 32.8257 23.9284 32.8257C23.2865 32.8257 22.55 32.5987 22.55 30.8297V21.546H25.7609L25.7595 21.5446Z" fill="white"/>
<path fill-rule="evenodd" clip-rule="evenodd" d="M35.8072 28.3784C34.5531 28.38 33.3519 28.8788 32.4652 29.7654C31.5785 30.652 31.0796 31.854 31.0781 33.1081C31.0796 34.3621 31.5785 35.5642 32.4652 36.4508C33.3519 37.3374 34.5531 37.8362 35.8072 37.8378C37.0611 37.8366 38.2638 37.3381 39.1504 36.4513C40.0372 35.5646 40.5361 34.3623 40.5376 33.1081C40.5361 31.8539 40.0372 30.6516 39.1504 29.7648C38.2638 28.8781 37.0611 28.3796 35.8072 28.3784Z" fill="#FF1FA8"/>
</g>
<defs>
<clipPath id="clip0_1_774">
<rect width="50" height="50" fill="white"/>
</clipPath>
</defs>
</svg>

<svg xmlns="http://www.w3.org/2000/svg" width="64" height="64" fill="none" viewBox="0 0 50 50"><g clip-path="url(#a)"><path fill="#1B1A32" d="M43.243 0H6.757A6.757 6.757 0 0 0 0 6.757v36.486A6.757 6.757 0 0 0 6.757 50h36.486A6.757 6.757 0 0 0 50 43.243V6.757A6.757 6.757 0 0 0 43.243 0Z"/><path fill="#fff" fill-rule="evenodd" d="M25.76 21.545c1.44 0 2.266-.784 2.266-2.153 0-1.29-.888-2.154-2.21-2.154H22.55v-2.42c0-1.744-1.253-2.656-2.49-2.656-1.237-.001-2.49.912-2.49 2.657v16.684c0 4.01 1.599 5.797 5.181 5.797 1.942 0 3.053-.499 3.877-.984.631-.351.856-1.094.856-1.673 0-1.073-.716-2.269-1.748-2.269-.217.002-.43.056-.622.157-.27.124-.642.295-1.186.295-.642 0-1.378-.227-1.378-1.996v-9.284h3.21v-.001Z" clip-rule="evenodd"/><path fill="#FF1FA8" fill-rule="evenodd" d="M35.807 28.378a4.734 4.734 0 0 0-4.729 4.73 4.735 4.735 0 0 0 4.73 4.73 4.734 4.734 0 0 0 4.73-4.73 4.736 4.736 0 0 0-4.73-4.73Z" clip-rule="evenodd"/></g><defs><clipPath id="a"><path fill="#fff" d="M0 0h50v50H0z"/></clipPath></defs></svg>
